X: 20126
T: Jimmy's Return
R: reel
M: 4/4
K: Bminor
|:fzBc dfed|c/B/Ace aece|~ffBc dfed|B/c/dec dB~BB|
A~BBd fded|c~cce aecA|BcdA B/c/deg|~ffec dB~BA:|
|:A~Bba faed|c/B/Ace aecA|~BBba faed|B/c/dec dBc/B/A|
~BBba faed|c/B/Ace aecA|BcdA B/c/deg|fdec dB~BB:|

